Origami/24x24/apps/estmob-sendanywhere.svg

<svg width="24" height="24" version="1" xmlns="http://www.w3.org/2000/svg">
 <rect transform="matrix(0,-1,-1,0,0,0)" x="-22" y="-22" width="20" height="20" rx="1" ry="1" style="fill:#ff5a48"/>
 <path d="m16.261719 4.4999944a0.26473916 0.26473916 0 0 0 -0.261719 0.2636719v0.7363281h-8s-0.7087517-0.013788-1.4472656 0.3554688-1.5527344 1.3111979-1.5527344 2.6445312v8.0000006h2v-8.0000006c0-0.6666667 0.1857795-0.7247257 0.4472656-0.8554688 0.2614861-0.130743 0.5527344-0.1445312 0.5527344-0.1445312h8.5 2.236328a0.26473916 0.26473916 0 0 0 0.185547 -0.4511719l-2.470703-2.4707031a0.26473916 0.26473916 0 0 0 -0.189453 -0.078125zm0.738281 4v8.0000006c0 0.666666-0.185779 0.724726-0.447266 0.855469-0.261486 0.130743-0.552734 0.144531-0.552734 0.144531h-8.265625-2.4707031a0.26473916 0.26473916 0 0 0 -0.1855469 0.451172l2.4707031 2.470703a0.26473916 0.26473916 0 0 0 0.1894531 0.078125 0.26473916 0.26473916 0 0 0 0.2617188 -0.265625v-0.734375h8s0.708752 0.01379 1.447266-0.355469c0.738513-0.369257 1.552734-1.311198 1.552734-2.644531v-8.0000006h-2zm-7 2.0000006c-0.554 0-1 0.446-1 1v1c0 0.554 0.446 1 1 1s1-0.446 1-1v-1c0-0.554-0.446-1-1-1zm4 0c-0.554 0-1 0.446-1 1v1c0 0.554 0.446 1 1 1s1-0.446 1-1v-1c0-0.554-0.446-1-1-1z" style="fill-rule:evenodd;opacity:.2"/>
 <path d="m2 3.5v-0.5c0-0.554 0.446-1 1-1h18c0.554 0 1 0.446 1 1v0.5c0-0.554-0.446-1-1-1h-18c-0.554 0-1 0.446-1 1z" style="fill:#ffffff;opacity:.2"/>
 <path d="m2 21v0.5c0 0.554 0.446 1 1 1h18c0.554 0 1-0.446 1-1v-0.5c0 0.554-0.446 1-1 1h-18c-0.554 0-1-0.446-1-1z" style="opacity:.2"/>
 <path d="m6 16v-8c0-2 2-2 2-2h8.5" style="fill:none;stroke-width:2;stroke:#ffffff"/>
 <path d="m16.260921 3.9999226a0.26473916 0.26473916 0 0 0 -0.260921 0.2647131v2.4706518a0.26473916 0.26473916 0 0 0 0.264713 0.2647125h2.470652a0.26473916 0.26473916 0 0 0 0.18716 -0.451873l-2.470652-2.4706516a0.26473916 0.26473916 0 0 0 -0.190952 -0.077553z" style="fill:#ffffff"/>
 <path d="m18 8v7.9999c0 1.999999-2 1.999999-2 1.999999h-8.5" style="fill:none;stroke-width:2;stroke:#ffffff"/>
 <path d="m7.739079 19.999977a0.26473916 0.26473916 0 0 0 0.260921 -0.264713v-2.470652a0.26473916 0.26473916 0 0 0 -0.2647125 -0.264713h-2.470652a0.26473916 0.26473916 0 0 0 -0.18716 0.451873l2.4706515 2.470652a0.26473916 0.26473916 0 0 0 0.190952 0.07755z" style="fill:#ffffff"/>
 <rect x="9" y="10" width="2" height="3" ry="1" style="fill:#ffffff"/>
 <rect x="13" y="10" width="2" height="3" ry="1" style="fill:#ffffff"/>
</svg>

<svg xmlns="http://www.w3.org/2000/svg" width="24" height="24" version="1">
 <rect style="fill:#ff5a48" width="20" height="20" x="-22" y="-22" rx="1" ry="1" transform="matrix(0,-1,-1,0,0,0)"/>
 <path style="opacity:0.2;fill-rule:evenodd" d="M 16.261719,4.4999944 A 0.26473916,0.26473916 0 0 0 16,4.7636663 l 0,0.7363281 -8,0 c 0,0 -0.7087517,-0.013788 -1.4472656,0.3554688 C 5.8142205,6.22472 5,7.1666611 5,8.4999944 l 0,8.0000006 2,0 0,-8.0000006 C 7,7.8333277 7.1857795,7.7752687 7.4472656,7.6445256 7.7087517,7.5137826 8,7.4999944 8,7.4999944 l 8.5,0 2.236328,0 A 0.26473916,0.26473916 0 0 0 18.921875,7.0488225 L 16.451172,4.5781194 a 0.26473916,0.26473916 0 0 0 -0.189453,-0.078125 z m 0.738281,4 0,8.0000006 c 0,0.666666 -0.185779,0.724726 -0.447266,0.855469 C 16.291248,17.486207 16,17.499995 16,17.499995 l -8.265625,0 -2.4707031,0 A 0.26473916,0.26473916 0 0 0 5.078125,17.951167 L 7.5488281,20.42187 A 0.26473916,0.26473916 0 0 0 7.7382812,20.499995 0.26473916,0.26473916 0 0 0 8,20.23437 l 0,-0.734375 8,0 c 0,0 0.708752,0.01379 1.447266,-0.355469 C 18.185779,18.775269 19,17.833328 19,16.499995 l 0,-8.0000006 -2,0 z m -7,2.0000006 c -0.554,0 -1,0.446 -1,1 l 0,1 c 0,0.554 0.446,1 1,1 0.554,0 1,-0.446 1,-1 l 0,-1 c 0,-0.554 -0.446,-1 -1,-1 z m 4,0 c -0.554,0 -1,0.446 -1,1 l 0,1 c 0,0.554 0.446,1 1,1 0.554,0 1,-0.446 1,-1 l 0,-1 c 0,-0.554 -0.446,-1 -1,-1 z"/>
 <path style="opacity:0.2;fill:#ffffff" d="M 2,3.5 2,3 C 2,2.446 2.446,2 3,2 l 18,0 c 0.554,0 1,0.446 1,1 l 0,0.5 c 0,-0.554 -0.446,-1 -1,-1 l -18,0 c -0.554,0 -1,0.446 -1,1 z"/>
 <path style="opacity:0.2" d="m 2,21 0,0.5 c 0,0.554 0.446,1 1,1 l 18,0 c 0.554,0 1,-0.446 1,-1 L 22,21 c 0,0.554 -0.446,1 -1,1 L 3,22 C 2.446,22 2,21.554 2,21 Z"/>
 <path style="fill:none;stroke:#ffffff;stroke-width:2" d="M 6,16 6,8 C 6,6 8,6 8,6 l 8.5,0"/>
 <path style="fill:#ffffff" d="M 16.260921,3.9999226 A 0.26473916,0.26473916 0 0 0 16,4.2646357 l 0,2.4706518 A 0.26473916,0.26473916 0 0 0 16.264713,7 l 2.470652,0 a 0.26473916,0.26473916 0 0 0 0.18716,-0.451873 L 16.451873,4.0774754 a 0.26473916,0.26473916 0 0 0 -0.190952,-0.077553 z"/>
 <path style="fill:none;stroke:#ffffff;stroke-width:2" d="m 18,8 0,7.9999 c 0,1.999999 -2,1.999999 -2,1.999999 l -8.5,0"/>
 <path style="fill:#ffffff" d="M 7.739079,19.999977 A 0.26473916,0.26473916 0 0 0 8,19.735264 L 8,17.264612 A 0.26473916,0.26473916 0 0 0 7.7352875,16.999899 l -2.470652,0 a 0.26473916,0.26473916 0 0 0 -0.18716,0.451873 l 2.4706515,2.470652 a 0.26473916,0.26473916 0 0 0 0.190952,0.07755 z"/>
 <rect style="fill:#ffffff" width="2" height="3" x="9" y="10" ry="1"/>
 <rect style="fill:#ffffff" width="2" height="3" x="13" y="10" ry="1"/>
</svg>
